X: 1
T: Coquett (sic.) Side
S: John Bell (c.1812)
M: C
L: 1/8
K: Gmaj
edBG BeB2 | edBG Bg A2 |
edBG GBgd | egfa gB A2 :|
|: BgBg afgd | BgBg aB A2 |
BgBg afgd | egfa gB A2 :|
